icons/seaborn-dark.svg

<svg width="256" height="256" viewBox="0 0 256 256" fill="none" xmlns="http://www.w3.org/2000/svg">
<path d="M196 0H60C26.8629 0 0 26.8629 0 60V196C0 229.137 26.8629 256 60 256H196C229.137 256 256 229.137 256 196V60C256 26.8629 229.137 0 196 0Z" fill="#282828"/>
<mask id="mask0_583_10" style="mask-type:luminance" maskUnits="userSpaceOnUse" x="28" y="33" width="200" height="190">
<path d="M228 33H28V222.83H228V33Z" fill="white"/>
</mask>
<g mask="url(#mask0_583_10)">
<path d="M128 219.441C152.273 219.441 175.555 209.797 192.718 192.634C209.882 175.47 219.525 152.188 219.525 127.916C219.525 103.643 209.882 80.3608 192.718 63.1973C175.555 46.0338 152.273 36.3901 128 36.3901C103.727 36.3901 80.4453 46.0338 63.2818 63.1973C46.1183 80.3608 36.4746 103.643 36.4746 127.916C36.4746 152.188 46.1183 175.47 63.2818 192.634C80.4453 209.797 103.727 219.441 128 219.441Z" fill="white" stroke="white" stroke-width="1.33333"/>
</g>
<mask id="mask1_583_10" style="mask-type:luminance" maskUnits="userSpaceOnUse" x="39" y="39" width="178" height="178">
<path d="M128 216.05C151.374 216.05 173.793 206.764 190.321 190.236C206.849 173.708 216.135 151.289 216.135 127.915C216.135 104.541 206.849 82.1214 190.321 65.5936C173.793 49.0658 151.374 39.7793 128 39.7793C104.626 39.7793 82.2064 49.0658 65.6786 65.5936C49.1508 82.1214 39.8643 104.541 39.8643 127.915C39.8643 151.289 49.1508 173.708 65.6786 190.236C82.2064 206.764 104.626 216.05 128 216.05Z" fill="white"/>
</mask>
<g mask="url(#mask1_583_10)">
<path d="M9.35596 150.982V251.643H12.7458H16.1356H19.5254H22.9153H26.3051H29.6949H33.0848H36.4746H39.8644H43.2543H46.6441H50.0339H53.4238H56.8136H60.2034H63.5932H66.9831H70.3729H73.7627H77.1526H80.5424H83.9322H87.3221H90.7119H94.1017H97.4916H100.881H104.271H107.661H111.051H114.441H117.831H121.22H124.61H128H131.39H134.78H138.17H141.559H144.949H148.339H151.729H155.119H158.509H161.898H165.288H168.678H172.068H175.458H178.847H182.237H185.627H189.017H192.407H195.797H199.186H202.576H205.966H209.356H212.746H216.136H219.525H222.915H226.305H229.695H233.085H236.475H239.864H243.254H246.644V158.482L243.254 158.253L239.864 157.992L236.475 157.694L233.085 157.355L229.695 156.973L226.305 156.543L222.915 156.061L219.525 155.525L216.136 154.93L212.746 154.274L209.356 153.553L205.966 152.765L202.576 151.909L199.186 150.982L195.797 149.984L192.407 148.916L189.017 147.778L185.627 146.573L182.237 145.303L178.847 143.973L175.458 142.589L172.068 141.155L168.678 139.681L165.288 138.175L161.898 136.647L158.509 135.107L155.119 133.567L151.729 132.039L148.339 130.537L144.949 129.074L141.559 127.663L138.17 126.318L134.78 125.053L131.39 123.881L128 122.814L124.61 121.863L121.22 121.04L117.831 120.353L114.441 119.81L111.051 119.418L107.661 119.18L104.271 119.101L100.881 119.18L97.4916 119.418L94.1017 119.81L90.7119 120.353L87.3221 121.04L83.9322 121.863L80.5424 122.814L77.1526 123.881L73.7627 125.053L70.3729 126.318L66.9831 127.663L63.5932 129.074L60.2034 130.537L56.8136 132.039L53.4238 133.567L50.0339 135.107L46.6441 136.647L43.2543 138.175L39.8644 139.681L36.4746 141.155L33.0848 142.589L29.6949 143.973L26.3051 145.303L22.9153 146.573L19.5254 147.778L16.1356 148.916L12.7458 149.984L9.35596 150.982Z" fill="#5C7DA2"/>
</g>
<mask id="mask2_583_10" style="mask-type:luminance" maskUnits="userSpaceOnUse" x="39" y="39" width="178" height="178">
<path d="M128 216.05C151.374 216.05 173.793 206.764 190.321 190.236C206.849 173.708 216.135 151.289 216.135 127.915C216.135 104.541 206.849 82.1214 190.321 65.5936C173.793 49.0658 151.374 39.7793 128 39.7793C104.626 39.7793 82.2064 49.0658 65.6786 65.5936C49.1508 82.1214 39.8643 104.541 39.8643 127.915C39.8643 151.289 49.1508 173.708 65.6786 190.236C82.2064 206.764 104.626 216.05 128 216.05Z" fill="white"/>
</mask>
<g mask="url(#mask2_583_10)">
<path d="M9.35596 118.174V149.287L12.7458 148.289L16.1356 147.221L19.5254 146.083L22.9153 144.878L26.3051 143.608L29.6949 142.279L33.0848 140.894L36.4746 139.461L39.8644 137.987L43.2543 136.48L46.6441 134.952L50.0339 133.412L53.4238 131.872L56.8136 130.344L60.2034 128.842L63.5932 127.379L66.9831 125.968L70.3729 124.624L73.7627 123.359L77.1526 122.186L80.5424 121.119L83.9322 120.168L87.3221 119.345L90.7119 118.658L94.1017 118.115L97.4916 117.723L100.881 117.486L104.271 117.406L107.661 117.486L111.051 117.723L114.441 118.115L117.831 118.658L121.22 119.345L124.61 120.168L128 121.119L131.39 122.186L134.78 123.359L138.17 124.624L141.559 125.968L144.949 127.379L148.339 128.842L151.729 130.344L155.119 131.872L158.509 133.412L161.898 134.952L165.288 136.48L168.678 137.987L172.068 139.461L175.458 140.894L178.847 142.279L182.237 143.608L185.627 144.878L189.017 146.083L192.407 147.221L195.797 148.289L199.186 149.287L202.576 150.214L205.966 151.071L209.356 151.858L212.746 152.579L216.136 153.236L219.525 153.83L222.915 154.367L226.305 154.848L229.695 155.278L233.085 155.66L236.475 155.999L239.864 156.297L243.254 156.559L246.644 156.787V108.238L243.254 107.1L239.864 105.895L236.475 104.625L233.085 103.296L229.695 101.911L226.305 100.478L222.915 99.0035L219.525 97.4974L216.136 95.9689L212.746 94.4289L209.356 92.8889L205.966 91.3613L202.576 89.8592L199.186 88.396L195.797 86.9852L192.407 85.6405L189.017 84.3755L185.627 83.2031L182.237 82.1359L178.847 81.1853L175.458 80.3619L172.068 79.6749L168.678 79.1321L165.288 78.7399L161.898 78.5027L158.509 78.4233L155.119 78.5027L151.729 78.7399L148.339 79.1321L144.949 79.6749L141.559 80.3619L138.17 81.1853L134.78 82.1359L131.39 83.2031L128 84.3755L124.61 85.6405L121.22 86.9852L117.831 88.396L114.441 89.8592L111.051 91.3613L107.661 92.8889L104.271 94.4289L100.881 95.9689L97.4916 97.4974L94.1017 99.0035L90.7119 100.478L87.3221 101.911L83.9322 103.296L80.5424 104.625L77.1526 105.895L73.7627 107.1L70.3729 108.238L66.9831 109.306L63.5932 110.304L60.2034 111.231L56.8136 112.088L53.4238 112.875L50.0339 113.596L46.6441 114.253L43.2543 114.847L39.8644 115.384L36.4746 115.865L33.0848 116.295L29.6949 116.677L26.3051 117.016L22.9153 117.314L19.5254 117.576L16.1356 117.804L12.7458 118.002L9.35596 118.174Z" fill="#7DB0BC"/>
</g>
<mask id="mask3_583_10" style="mask-type:luminance" maskUnits="userSpaceOnUse" x="28" y="33" width="200" height="190">
<path d="M228 33H28V222.83H228V33Z" fill="white"/>
</mask>
<g mask="url(#mask3_583_10)">
<path d="M221.22 127.915C221.22 115.674 218.809 103.551 214.124 92.2413C209.439 80.9315 202.572 70.6545 193.916 61.9984C185.26 53.3423 174.983 46.4755 163.674 41.7908C152.364 37.1061 140.241 34.6948 128 34.6948C115.758 34.6948 103.636 37.1061 92.3258 41.7908C81.016 46.4755 70.739 53.3423 62.0829 61.9984C53.4268 70.6545 46.5599 80.9315 41.8753 92.2413C37.1906 103.551 34.7793 115.674 34.7793 127.915C34.7793 140.157 37.1906 152.279 41.8753 163.589C46.5599 174.899 53.4268 185.176 62.0829 193.832C70.739 202.488 81.016 209.355 92.3258 214.04C103.636 218.724 115.758 221.136 128 221.136C140.241 221.136 152.364 218.724 163.674 214.04C174.983 209.355 185.26 202.488 193.916 193.832C202.572 185.176 209.439 174.899 214.124 163.589C218.809 152.279 221.22 140.157 221.22 127.915ZM219.525 127.915C219.525 139.934 217.158 151.836 212.558 162.94C207.959 174.045 201.217 184.135 192.718 192.633C184.219 201.132 174.129 207.874 163.025 212.474C151.921 217.073 140.019 219.441 128 219.441C115.981 219.441 104.078 217.073 92.9744 212.474C81.8703 207.874 71.7801 201.132 63.2814 192.633C54.7827 184.135 48.0406 174.045 43.4412 162.94C38.8417 151.836 36.4742 139.934 36.4742 127.915C36.4742 115.896 38.8417 103.994 43.4412 92.8899C48.0406 81.7858 54.7827 71.6956 63.2814 63.1969C71.7801 54.6982 81.8703 47.9562 92.9744 43.3567C104.078 38.7572 115.981 36.3897 128 36.3897C140.019 36.3897 151.921 38.7572 163.025 43.3567C174.129 47.9562 184.219 54.6982 192.718 63.1969C201.217 71.6956 207.959 81.7858 212.558 92.8899C217.158 103.994 219.525 115.896 219.525 127.915Z" fill="#444876" stroke="#444876" stroke-width="1.33333"/>
</g>
<mask id="mask4_583_10" style="mask-type:luminance" maskUnits="userSpaceOnUse" x="39" y="39" width="178" height="178">
<path d="M128 216.05C151.374 216.05 173.793 206.764 190.321 190.236C206.849 173.708 216.135 151.289 216.135 127.915C216.135 104.541 206.849 82.1214 190.321 65.5936C173.793 49.0658 151.374 39.7793 128 39.7793C104.626 39.7793 82.2064 49.0658 65.6786 65.5936C49.1508 82.1214 39.8643 104.541 39.8643 127.915C39.8643 151.289 49.1508 173.708 65.6786 190.236C82.2064 206.764 104.626 216.05 128 216.05Z" fill="white"/>
</mask>
<g mask="url(#mask4_583_10)">
<path d="M29.6948 253.338H50.0338V173.372H29.6948V253.338Z" fill="#444876" stroke="white" stroke-width="1.33333"/>
</g>
<mask id="mask5_583_10" style="mask-type:luminance" maskUnits="userSpaceOnUse" x="39" y="39" width="178" height="178">
<path d="M128 216.05C151.374 216.05 173.793 206.764 190.321 190.236C206.849 173.708 216.135 151.289 216.135 127.915C216.135 104.541 206.849 82.1214 190.321 65.5936C173.793 49.0658 151.374 39.7793 128 39.7793C104.626 39.7793 82.2064 49.0658 65.6786 65.5936C49.1508 82.1214 39.8643 104.541 39.8643 127.915C39.8643 151.289 49.1508 173.708 65.6786 190.236C82.2064 206.764 104.626 216.05 128 216.05Z" fill="white"/>
</mask>
<g mask="url(#mask5_583_10)">
<path d="M50.0337 253.339H70.3727V158.674H50.0337V253.339Z" fill="#444876" stroke="white" stroke-width="1.33333"/>
</g>
<mask id="mask6_583_10" style="mask-type:luminance" maskUnits="userSpaceOnUse" x="39" y="39" width="178" height="178">
<path d="M128 216.05C151.374 216.05 173.793 206.764 190.321 190.236C206.849 173.708 216.135 151.289 216.135 127.915C216.135 104.541 206.849 82.1214 190.321 65.5936C173.793 49.0658 151.374 39.7793 128 39.7793C104.626 39.7793 82.2064 49.0658 65.6786 65.5936C49.1508 82.1214 39.8643 104.541 39.8643 127.915C39.8643 151.289 49.1508 173.708 65.6786 190.236C82.2064 206.764 104.626 216.05 128 216.05Z" fill="white"/>
</mask>
<g mask="url(#mask6_583_10)">
<path d="M70.3726 253.339H90.7115V144.508H70.3726V253.339Z" fill="#444876" stroke="white" stroke-width="1.33333"/>
</g>
<mask id="mask7_583_10" style="mask-type:luminance" maskUnits="userSpaceOnUse" x="39" y="39" width="178" height="178">
<path d="M128 216.05C151.374 216.05 173.793 206.764 190.321 190.236C206.849 173.708 216.135 151.289 216.135 127.915C216.135 104.541 206.849 82.1214 190.321 65.5936C173.793 49.0658 151.374 39.7793 128 39.7793C104.626 39.7793 82.2064 49.0658 65.6786 65.5936C49.1508 82.1214 39.8643 104.541 39.8643 127.915C39.8643 151.289 49.1508 173.708 65.6786 190.236C82.2064 206.764 104.626 216.05 128 216.05Z" fill="white"/>
</mask>
<g mask="url(#mask7_583_10)">
<path d="M90.7114 253.339H111.05V141.954H90.7114V253.339Z" fill="#444876" stroke="white" stroke-width="1.33333"/>
</g>
<mask id="mask8_583_10" style="mask-type:luminance" maskUnits="userSpaceOnUse" x="39" y="39" width="178" height="178">
<path d="M128 216.05C151.374 216.05 173.793 206.764 190.321 190.236C206.849 173.708 216.135 151.289 216.135 127.915C216.135 104.541 206.849 82.1214 190.321 65.5936C173.793 49.0658 151.374 39.7793 128 39.7793C104.626 39.7793 82.2064 49.0658 65.6786 65.5936C49.1508 82.1214 39.8643 104.541 39.8643 127.915C39.8643 151.289 49.1508 173.708 65.6786 190.236C82.2064 206.764 104.626 216.05 128 216.05Z" fill="white"/>
</mask>
<g mask="url(#mask8_583_10)">
<path d="M111.051 253.339H131.39V153.321H111.051V253.339Z" fill="#444876" stroke="white" stroke-width="1.33333"/>
</g>
<mask id="mask9_583_10" style="mask-type:luminance" maskUnits="userSpaceOnUse" x="39" y="39" width="178" height="178">
<path d="M128 216.05C151.374 216.05 173.793 206.764 190.321 190.236C206.849 173.708 216.135 151.289 216.135 127.915C216.135 104.541 206.849 82.1214 190.321 65.5936C173.793 49.0658 151.374 39.7793 128 39.7793C104.626 39.7793 82.2064 49.0658 65.6786 65.5936C49.1508 82.1214 39.8643 104.541 39.8643 127.915C39.8643 151.289 49.1508 173.708 65.6786 190.236C82.2064 206.764 104.626 216.05 128 216.05Z" fill="white"/>
</mask>
<g mask="url(#mask9_583_10)">
<path d="M131.39 253.339H151.729V169.02H131.39V253.339Z" fill="#444876" stroke="white" stroke-width="1.33333"/>
</g>
<mask id="mask10_583_10" style="mask-type:luminance" maskUnits="userSpaceOnUse" x="39" y="39" width="178" height="178">
<path d="M128 216.05C151.374 216.05 173.793 206.764 190.321 190.236C206.849 173.708 216.135 151.289 216.135 127.915C216.135 104.541 206.849 82.1214 190.321 65.5936C173.793 49.0658 151.374 39.7793 128 39.7793C104.626 39.7793 82.2064 49.0658 65.6786 65.5936C49.1508 82.1214 39.8643 104.541 39.8643 127.915C39.8643 151.289 49.1508 173.708 65.6786 190.236C82.2064 206.764 104.626 216.05 128 216.05Z" fill="white"/>
</mask>
<g mask="url(#mask10_583_10)">
<path d="M151.729 253.338H172.068V179.757H151.729V253.338Z" fill="#444876" stroke="white" stroke-width="1.33333"/>
</g>
<mask id="mask11_583_10" style="mask-type:luminance" maskUnits="userSpaceOnUse" x="39" y="39" width="178" height="178">
<path d="M128 216.05C151.374 216.05 173.793 206.764 190.321 190.236C206.849 173.708 216.135 151.289 216.135 127.915C216.135 104.541 206.849 82.1214 190.321 65.5936C173.793 49.0658 151.374 39.7793 128 39.7793C104.626 39.7793 82.2064 49.0658 65.6786 65.5936C49.1508 82.1214 39.8643 104.541 39.8643 127.915C39.8643 151.289 49.1508 173.708 65.6786 190.236C82.2064 206.764 104.626 216.05 128 216.05Z" fill="white"/>
</mask>
<g mask="url(#mask11_583_10)">
<path d="M172.067 253.339H192.406V184.29H172.067V253.339Z" fill="#444876" stroke="white" stroke-width="1.33333"/>
</g>
</svg>

<svg xmlns="http://www.w3.org/2000/svg" width="256" height="256" fill="none"><path fill="#282828" d="M196 0H60C26.863 0 0 26.863 0 60v136c0 33.137 26.863 60 60 60h136c33.137 0 60-26.863 60-60V60c0-33.137-26.863-60-60-60"/><mask id="mask0_583_10" width="200" height="190" x="28" y="33" maskUnits="userSpaceOnUse" style="mask-type:luminance"><path fill="#fff" d="M228 33H28v189.83h200z"/></mask><g mask="url(#mask0_583_10)"><path fill="#fff" stroke="#fff" stroke-width="1.333" d="M128 219.441a91.53 91.53 0 0 0 64.718-26.807 91.53 91.53 0 0 0 0-129.437 91.53 91.53 0 0 0-129.436 0 91.53 91.53 0 0 0-26.807 64.719 91.53 91.53 0 0 0 26.807 64.718A91.53 91.53 0 0 0 128 219.441Z"/></g><mask id="mask1_583_10" width="178" height="178" x="39" y="39" maskUnits="userSpaceOnUse" style="mask-type:luminance"><path fill="#fff" d="M128 216.05a88.14 88.14 0 0 0 88.135-88.135A88.14 88.14 0 0 0 128 39.779a88.14 88.14 0 0 0-88.136 88.136A88.14 88.14 0 0 0 128 216.05"/></mask><g mask="url(#mask1_583_10)"><path fill="#5C7DA2" d="M9.356 150.982v100.661h237.288v-93.161l-3.39-.229-3.39-.261-3.389-.298-3.39-.339-3.39-.382-3.39-.43-3.39-.482-3.39-.536-3.389-.595-3.39-.656-3.39-.721-3.39-.788-3.39-.856-3.39-.927-3.389-.998-3.39-1.068-3.39-1.138-3.39-1.205-3.39-1.27-3.39-1.33-3.389-1.384-3.39-1.434-3.39-1.474-3.39-1.506-3.39-1.528-3.389-1.54-3.39-1.54-3.39-1.528-3.39-1.502-3.39-1.463-3.39-1.411-3.389-1.345-3.39-1.265-3.39-1.172-3.39-1.067-3.39-.951-3.39-.823-3.389-.687-3.39-.543-3.39-.392-3.39-.238-3.39-.079-3.39.079-3.39.238-3.39.392-3.39.543-3.389.687-3.39.823-3.39.951-3.39 1.067-3.39 1.172-3.39 1.265-3.389 1.345-3.39 1.411-3.39 1.463-3.39 1.502-3.39 1.528-3.39 1.54-3.389 1.54-3.39 1.528-3.39 1.506-3.39 1.474-3.39 1.434-3.39 1.384-3.389 1.33-3.39 1.27-3.39 1.205-3.39 1.138-3.39 1.068z"/></g><mask id="mask2_583_10" width="178" height="178" x="39" y="39" maskUnits="userSpaceOnUse" style="mask-type:luminance"><path fill="#fff" d="M128 216.05a88.14 88.14 0 0 0 88.135-88.135A88.14 88.14 0 0 0 128 39.779a88.14 88.14 0 0 0-88.136 88.136A88.14 88.14 0 0 0 128 216.05"/></mask><g mask="url(#mask2_583_10)"><path fill="#7DB0BC" d="M9.356 118.174v31.113l3.39-.998 3.39-1.068 3.39-1.138 3.39-1.205 3.39-1.27 3.389-1.329 3.39-1.385 3.39-1.433 3.39-1.474 3.39-1.507 3.39-1.528 3.389-1.54 3.39-1.54 3.39-1.528 3.39-1.502 3.39-1.463 3.39-1.411 3.389-1.344 3.39-1.265 3.39-1.173 3.39-1.067 3.39-.951 3.39-.823 3.389-.687 3.39-.543 3.39-.392 3.389-.237 3.39-.08 3.39.08 3.39.237 3.39.392 3.39.543 3.389.687 3.39.823 3.39.951 3.39 1.067 3.39 1.173 3.39 1.265 3.389 1.344 3.39 1.411 3.39 1.463 3.39 1.502 3.39 1.528 3.39 1.54 3.389 1.54 3.39 1.528 3.39 1.507 3.39 1.474 3.39 1.433 3.389 1.385 3.39 1.329 3.39 1.27 3.39 1.205 3.39 1.138 3.39 1.068 3.389.998 3.39.927 3.39.857 3.39.787 3.39.721 3.39.657 3.389.594 3.39.537 3.39.481 3.39.43 3.39.382 3.39.339 3.389.298 3.39.262 3.39.228v-48.549l-3.39-1.138-3.39-1.205-3.389-1.27-3.39-1.329-3.39-1.385-3.39-1.433-3.39-1.474-3.39-1.507-3.389-1.528-3.39-1.54-3.39-1.54-3.39-1.528-3.39-1.502-3.39-1.463-3.389-1.41-3.39-1.346-3.39-1.264-3.39-1.173-3.39-1.067-3.39-.95-3.389-.824-3.39-.687-3.39-.543-3.39-.392-3.39-.237-3.389-.08-3.39.08-3.39.237-3.39.392-3.39.543-3.39.687-3.389.823-3.39.95-3.39 1.068-3.39 1.172-3.39 1.266-3.39 1.344-3.389 1.411-3.39 1.463-3.39 1.502-3.39 1.528-3.39 1.54-3.39 1.54-3.39 1.528-3.39 1.507-3.39 1.474-3.389 1.433-3.39 1.385-3.39 1.329-3.39 1.27-3.39 1.205-3.39 1.138-3.389 1.068-3.39.998-3.39.927-3.39.857-3.39.787-3.39.721-3.389.657-3.39.594-3.39.537-3.39.481-3.39.43-3.39.382-3.389.339-3.39.298-3.39.262-3.39.228-3.39.198z"/></g><mask id="mask3_583_10" width="200" height="190" x="28" y="33" maskUnits="userSpaceOnUse" style="mask-type:luminance"><path fill="#fff" d="M228 33H28v189.83h200z"/></mask><g mask="url(#mask3_583_10)"><path fill="#444876" stroke="#444876" stroke-width="1.333" d="M221.22 127.915a93.22 93.22 0 0 0-57.546-86.124A93.225 93.225 0 0 0 62.083 61.998a93.221 93.221 0 1 0 159.137 65.917Zm-1.695 0a91.52 91.52 0 0 1-26.807 64.718A91.54 91.54 0 0 1 128 219.441a91.54 91.54 0 0 1-64.719-26.808 91.5 91.5 0 0 1-26.807-64.718 91.526 91.526 0 0 1 183.051 0Z"/></g><mask id="mask4_583_10" width="178" height="178" x="39" y="39" maskUnits="userSpaceOnUse" style="mask-type:luminance"><path fill="#fff" d="M128 216.05a88.14 88.14 0 0 0 88.135-88.135A88.14 88.14 0 0 0 128 39.779a88.14 88.14 0 0 0-88.136 88.136A88.14 88.14 0 0 0 128 216.05"/></mask><g mask="url(#mask4_583_10)"><path fill="#444876" stroke="#fff" stroke-width="1.333" d="M29.695 253.338h20.339v-79.966h-20.34z"/></g><mask id="mask5_583_10" width="178" height="178" x="39" y="39" maskUnits="userSpaceOnUse" style="mask-type:luminance"><path fill="#fff" d="M128 216.05a88.14 88.14 0 0 0 88.135-88.135A88.14 88.14 0 0 0 128 39.779a88.14 88.14 0 0 0-88.136 88.136A88.14 88.14 0 0 0 128 216.05"/></mask><g mask="url(#mask5_583_10)"><path fill="#444876" stroke="#fff" stroke-width="1.333" d="M50.034 253.339h20.339v-94.665h-20.34z"/></g><mask id="mask6_583_10" width="178" height="178" x="39" y="39" maskUnits="userSpaceOnUse" style="mask-type:luminance"><path fill="#fff" d="M128 216.05a88.14 88.14 0 0 0 88.135-88.135A88.14 88.14 0 0 0 128 39.779a88.14 88.14 0 0 0-88.136 88.136A88.14 88.14 0 0 0 128 216.05"/></mask><g mask="url(#mask6_583_10)"><path fill="#444876" stroke="#fff" stroke-width="1.333" d="M70.373 253.339H90.71V144.508H70.374z"/></g><mask id="mask7_583_10" width="178" height="178" x="39" y="39" maskUnits="userSpaceOnUse" style="mask-type:luminance"><path fill="#fff" d="M128 216.05a88.14 88.14 0 0 0 88.135-88.135A88.14 88.14 0 0 0 128 39.779a88.14 88.14 0 0 0-88.136 88.136A88.14 88.14 0 0 0 128 216.05"/></mask><g mask="url(#mask7_583_10)"><path fill="#444876" stroke="#fff" stroke-width="1.333" d="M90.711 253.339h20.339V141.954H90.711z"/></g><mask id="mask8_583_10" width="178" height="178" x="39" y="39" maskUnits="userSpaceOnUse" style="mask-type:luminance"><path fill="#fff" d="M128 216.05a88.14 88.14 0 0 0 88.135-88.135A88.14 88.14 0 0 0 128 39.779a88.14 88.14 0 0 0-88.136 88.136A88.14 88.14 0 0 0 128 216.05"/></mask><g mask="url(#mask8_583_10)"><path fill="#444876" stroke="#fff" stroke-width="1.333" d="M111.051 253.339h20.339V153.321h-20.339z"/></g><mask id="mask9_583_10" width="178" height="178" x="39" y="39" maskUnits="userSpaceOnUse" style="mask-type:luminance"><path fill="#fff" d="M128 216.05a88.14 88.14 0 0 0 88.135-88.135A88.14 88.14 0 0 0 128 39.779a88.14 88.14 0 0 0-88.136 88.136A88.14 88.14 0 0 0 128 216.05"/></mask><g mask="url(#mask9_583_10)"><path fill="#444876" stroke="#fff" stroke-width="1.333" d="M131.39 253.339h20.339V169.02H131.39z"/></g><mask id="mask10_583_10" width="178" height="178" x="39" y="39" maskUnits="userSpaceOnUse" style="mask-type:luminance"><path fill="#fff" d="M128 216.05a88.14 88.14 0 0 0 88.135-88.135A88.14 88.14 0 0 0 128 39.779a88.14 88.14 0 0 0-88.136 88.136A88.14 88.14 0 0 0 128 216.05"/></mask><g mask="url(#mask10_583_10)"><path fill="#444876" stroke="#fff" stroke-width="1.333" d="M151.729 253.338h20.339v-73.581h-20.339z"/></g><mask id="mask11_583_10" width="178" height="178" x="39" y="39" maskUnits="userSpaceOnUse" style="mask-type:luminance"><path fill="#fff" d="M128 216.05a88.14 88.14 0 0 0 88.135-88.135A88.14 88.14 0 0 0 128 39.779a88.14 88.14 0 0 0-88.136 88.136A88.14 88.14 0 0 0 128 216.05"/></mask><g mask="url(#mask11_583_10)"><path fill="#444876" stroke="#fff" stroke-width="1.333" d="M172.067 253.339h20.339V184.29h-20.339z"/></g></svg>
